dist/img/icons/quotes.svg

<svg width="36" height="36" viewBox="0 0 36 36" fill="none" xmlns="http://www.w3.org/2000/svg">
<path fill-rule="evenodd" clip-rule="evenodd" d="M25.3298 28.1949L24.1868 27.5102L23.6911 27.0783C21.9054 25.5845 19.9529 22.721 20.4729 17.2762C20.7772 13.0183 23.0485 6.64411 32.1391 0.435724C32.5756 0.145199 33.0859 0 33.596 0C34.3025 0 35.0041 0.273945 35.475 0.809296C36.2797 1.71822 36.0883 3.02957 35.0532 3.73506C27.6454 8.78551 25.6241 13.7365 25.266 17.1311C26.3109 16.6165 27.4932 16.3012 28.7736 16.3012C32.7622 16.3012 36 19.1439 36 22.6506C36 26.1573 32.767 29 28.7736 29C27.8709 29 27.0419 28.8051 26.252 28.5311L26.2766 28.5809L25.4426 28.2448L25.369 28.2198L25.3298 28.1949ZM3.81385 27.5102L3.31343 27.0786C1.5178 25.5846 -0.434662 22.7211 0.0853653 17.2762C0.394543 13.0183 2.66096 6.64411 11.7564 0.435724C12.1929 0.145199 12.7032 0 13.2134 0C13.9199 0 14.6214 0.273945 15.0924 0.809296C15.897 1.71822 15.7106 3.02957 14.6705 3.73506C7.26279 8.78551 5.24149 13.7365 4.88832 17.1311C5.93316 16.6165 7.11554 16.3012 8.39592 16.3012C12.3942 16.3012 15.6223 19.1439 15.6223 22.6506C15.6223 26.1573 12.3942 29 8.4058 29C7.50312 29 6.66914 28.8051 5.87929 28.5311L5.90384 28.5809L5.06985 28.2448L4.99128 28.2198L4.95207 28.1949L3.81385 27.5102Z" fill="#D7E0FF"/>
</svg>

<svg width="36" height="36" viewBox="0 0 36 36" fill="none" xmlns="http://www.w3.org/2000/svg"><path fill-rule="evenodd" clip-rule="evenodd" d="M25.33 28.195l-1.143-.685-.496-.432c-1.786-1.494-3.738-4.357-3.218-9.802.304-4.258 2.576-10.632 11.666-16.84A2.63 2.63 0 0133.596 0c.707 0 1.408.274 1.879.81.805.908.613 2.22-.422 2.925-7.408 5.05-9.429 10.001-9.787 13.396a7.903 7.903 0 013.508-.83c3.988 0 7.226 2.843 7.226 6.35C36 26.157 32.767 29 28.774 29c-.903 0-1.732-.195-2.522-.469l.025.05-.834-.336-.074-.025-.04-.025zM3.814 27.51l-.5-.431c-1.797-1.494-3.75-4.359-3.23-9.803C.395 13.018 2.661 6.644 11.756.436A2.63 2.63 0 0113.213 0c.707 0 1.408.274 1.88.81.804.908.618 2.22-.422 2.925-7.408 5.05-9.43 10.001-9.783 13.396a7.903 7.903 0 013.508-.83c3.998 0 7.226 2.843 7.226 6.35 0 3.506-3.228 6.349-7.216 6.349-.903 0-1.737-.195-2.527-.469l.025.05-.834-.336-.079-.025-.039-.025-1.138-.685z" fill="#D7E0FF"/></svg>
